X:5869
T:Scottish d'automne
O:england
C:Trad 1, 122
M:2/4
L:1/16
K:C
G2A2A4|GBdB c4|Bcde fedc|BcdB e2c2|\
G2A2A4|GBdB c4|Bcde fedc|BcdB c4:|
g2e2 ce  g2|a2a2g4|cdef gfed|cdef e2c2|\
g2e2 ce  g2|a2a2g4|cdef gfed|cded c4:|


